X: 22648
T: Lairds Of Ryton, The
R: slip jig
M: 9/8
K: Gmajor
~B4G2 BABcde g2d2B2|d2g2f2 d2g2B2 d2efg2|~B4G2 BABcde f2d2B2|c3dc2 g2e2c2 ~e4g2:|
|:f2d2B2 d2efgf gfedf2|d2g2f2 d2g2B2 d2efg2|f2d2B2 d2efgf gfedB2|c3dc2 gfedc2 ~e4g2:|
|:G3ABc d2g2f2 d2g2B2|d2g2f2 d2g2B2 d2efg2|G3ABc d2g2f2 d2g2B2|c3dc2 gfedc2 ~e4g2:|
|:~f4d2 d2Bcd2 d2Bcd2|g2Bcd2 d2Bcd2 f2d2g2|~f4d2 d2Bcd2 g2d2B2|c3dc2 gfedc2 ~e4g2:|
|:G2BcdB dcBcdB dcBcdB|G2BcdB dcBcdB edefg2|G2BcdB dcBcdB g2B2d2|c3dc2 gfedc2 ~e4g2:|
|:Bcd2f2 Bcd2g2 Bcd2f2|d2g2f2 d2g2B2 d2efg2|Bcd2f2 Bcd2g2 Bcd2f2|c3dc2 gfedc2 ~e4g2:|
~B4G2 BABcde g2d2B2|d2g2f2 d2g2B2 d2efg2|~B4G2 BABcde g2d2B2|c3dc2 g2e2c2 ~e4g2:|
|:f2d2B2 d2efgf gfedf2|d2g2f2 d2g2B2 d2efg2|f2d2B2 d2efgf gfedB2|c3dc2 gfedc2 ~e4g2:|
|:G3ABc d2g2f2 d2g2B2|d2g2f2 d2g2B2 d2efg2|G3ABc d2g2f2 d2g2B2|c3dc2 gfedc2 ~e4g2:|
|:~f4d2 d2Bcd2 d2Bcd2|g2Bcd2 d2Bcd2 f2d2g2|~f4d2 d2Bcd2 g2d2B2|c3dc2 gfedc2 ~e4g2:|

